actions/symbolic/document-import-symbolic-rtl.svg

<?xml version="1.0" encoding="UTF-8" standalone="no"?>
<svg
   height="16"
   width="16"
   version="1.1"
   id="svg11"
   sodipodi:docname="document-import-symbolic-rtl.svg"
   inkscape:version="1.2.2 (b0a8486541, 2022-12-01)"
   xmlns:inkscape="http://www.inkscape.org/namespaces/inkscape"
   xmlns:sodipodi="http://sodipodi.sourceforge.net/DTD/sodipodi-0.dtd"
   xmlns="http://www.w3.org/2000/svg"
   xmlns:svg="http://www.w3.org/2000/svg">
  <sodipodi:namedview
     id="namedview5"
     pagecolor="#ffffff"
     bordercolor="#000000"
     borderopacity="0.25"
     inkscape:showpageshadow="2"
     inkscape:pageopacity="0.0"
     inkscape:pagecheckerboard="0"
     inkscape:deskcolor="#d1d1d1"
     showgrid="false"
     inkscape:zoom="64"
     inkscape:cx="4.8671875"
     inkscape:cy="9.953125"
     inkscape:window-width="1278"
     inkscape:window-height="1005"
     inkscape:window-x="577"
     inkscape:window-y="13"
     inkscape:window-maximized="0"
     inkscape:current-layer="svg11" />
  <defs
     id="defs15" />
  <path
     id="path944"
     style="fill:#555761;stroke:none;stroke-width:1;stroke-linecap:round;-inkscape-stroke:none;stop-color:#000000"
     d="M 5.5703125,5.000633 C 5.3021455,4.9871224 5.009066,5.1913806 5,5.4712649 V 7.0003306 H 1.5 C 1.2390006,7.0003306 1,7.2382955 1,7.500255 V 8.0001794 8.5001038 C 1,8.7620632 1.2390006,9.0000282 1.5,9.0000282 H 5 v 1.5290658 c 0.012088,0.373179 0.5282351,0.611453 0.8183594,0.378849 L 8.8398438,8.3790283 C 8.94654,8.2753041 9,8.1379404 9,8.0001794 9,7.8624183 8.94654,7.7250556 8.8398438,7.6213305 L 5.8183594,5.092416 C 5.7458283,5.0342648 5.6597015,5.0051365 5.5703125,5.000633 Z"
     sodipodi:nodetypes="sccsscssccccsccs" />
  <path
     style="fill:#555761;stroke:none;stroke-width:1;stroke-linecap:round;-inkscape-stroke:none;stop-color:#000000"
     d="m 12,2 c 1.10799,0 2,0.89201 2,2 v 8 c 0,1.107991 -0.89201,2 -2,2 H 4 C 2.892009,14 2,13.107991 2,12 v -2 h 1 v 2 c 0,0.553992 0.446009,1 1,1 h 8 c 0.553995,0 1,-0.446008 1,-1 V 4 C 13,3.446005 12.553995,3 12,3 H 4 C 3.446007,3 3,3.446007 3,4 V 6 H 2 V 4 C 2,2.892009 2.89201,2 4,2 Z"
     id="rect322" />
</svg>

<svg
        xmlns='http://www.w3.org/2000/svg'
        xmlns:svg='http://www.w3.org/2000/svg'
        id='svg11'
        width='16'
        height='16'>
  <path
          id='path944'
          fill='url(#gpa:foreground) #555761'
          fill-opacity='1'
          fill-rule='nonzero'
          stroke='none'
          stroke-width='1'
          stroke-linecap='round'
          d='M 5.57031 5.00063 C 5.30215 4.98712, 5.00907 5.19138, 5 5.47126 L 5 7.00033 L 1.5 7.00033 C 1.239 7.00033, 1 7.2383, 1 7.50026 L 1 8.00018 L 1 8.5001 C 1 8.76206, 1.239 9.00003, 1.5 9.00003 L 5 9.00003 L 5 10.5291 C 5.01209 10.9023, 5.52823 11.1405, 5.81836 10.9079 L 8.83984 8.37903 C 8.94654 8.2753, 9 8.13794, 9 8.00018 C 9 7.86242, 8.94654 7.72506, 8.83984 7.62133 L 5.81836 5.09242 C 5.74583 5.03426, 5.6597 5.00514, 5.57031 5.00063 Z'
          class="foreground">
  </path>
  <path
          id='rect322'
          fill='url(#gpa:foreground) #555761'
          fill-opacity='1'
          fill-rule='nonzero'
          stroke='none'
          stroke-width='1'
          stroke-linecap='round'
          d='M 12 2 C 13.108 2, 14 2.89201, 14 4 L 14 12 C 14 13.108, 13.108 14, 12 14 L 4 14 C 2.89201 14, 2 13.108, 2 12 L 2 10 L 3 10 L 3 12 C 3 12.554, 3.44601 13, 4 13 L 12 13 C 12.554 13, 13 12.554, 13 12 L 13 4 C 13 3.44601, 12.554 3, 12 3 L 4 3 C 3.44601 3, 3 3.44601, 3 4 L 3 6 L 2 6 L 2 4 C 2 2.89201, 2.89201 2, 4 2 Z'
          class="foreground">
  </path>
</svg>
